lightgun/_inc/system.svg

<svg viewBox="0 0 200 40" xmlns="http://www.w3.org/2000/svg"><path d="m994.141 1044.927c-13.094-4.136-28.257-10.338-32.392-14.474-13.784-11.027-11.028-92.353 5.513-150.246 28.947-106.138 82.015-192.288 183.329-297.048 78.569-82.016 88.218-102.692 67.541-147.49-12.405-25.501-53.068-58.582-72.366-58.582-6.203 0-17.23-4.825-24.812-10.338-6.891-5.514-24.122-10.338-37.906-10.338-32.393 0-42.042-8.271-75.124-65.475-31.703-54.447-32.392-62.717-14.473-110.272l13.095-34.461 36.527-3.446c30.326-3.446 48.935-11.027 97.868-43.42 33.082-21.365 67.542-39.284 75.812-39.284 8.271 0 25.501 6.202 37.907 13.784 19.987 12.405 34.46 13.784 139.908 13.783 107.516 0 119.233 1.379 137.842 13.784 17.919 13.095 20.676 13.784 39.974 4.135 17.23-9.648 20.676-9.648 24.122-.689 2.757 8.271 6.892 8.96 21.365 2.068 12.406-5.514 19.987-5.514 24.811-.689 5.514 5.513 12.406 5.513 24.812-.001 13.095-5.513 17.919-5.513 22.054 1.379 4.825 6.892 8.96 7.581 20.677.689 11.716-5.514 17.919-6.203 24.811 0s13.095 5.514 24.122 0c13.095-6.892 16.541-5.514 25.501 6.203 9.648 14.473 12.405 14.473 401.806 14.472h391.469l79.948-31.015c75.123-29.636 81.326-31.014 99.245-21.365 47.555 24.811 142.666 174.368 137.842 216.41-2.068 17.23-4.824 18.608-41.353 20.676-31.702 1.378-40.663 4.824-48.933 17.919l-10.338 15.852-281.197 4.136-281.195 4.825-17.23 19.987-17.919 20.676-261.898 17.92c-144.044 9.649-266.033 19.298-271.547 21.365-6.892 2.068-8.27 11.717-5.513 38.596 2.757 19.297 7.581 38.596 11.716 42.731 10.338 10.338 8.271 35.839-4.135 46.177-7.581 6.203-35.839 11.027-73.745 13.095l-62.029 3.446-88.218 158.517c-84.083 150.247-88.907 160.585-88.907 197.113 0 22.744-3.446 42.041-8.27 46.176-15.852 12.406-221.924 62.03-274.304 66.165-28.258 2.068-62.718 0-75.813-3.446z" fill="#ccc" transform="matrix(.0113809245 -.00520391847 .00520391847 .0113809245 11.76175386453 23.44025418789)"/><path d="m61.638 24.4-.84 4.8h-11.4l3.3-18.75h5.7l-2.46 13.95zm6 4.8h-5.7l3.3-18.75h5.7zm13.74-5.52.15-.81h-1.44l.81-4.59h6.87l-1.77 10.02c-2.44.9-4.89 1.35-7.35 1.35-2.46 0-4.237-.49-5.33-1.47-1.087-.98-1.63-2.49-1.63-4.53 0-.86.14-2.13.42-3.81.6-3.48 1.66-5.99 3.18-7.53 1.52-1.54 4.04-2.31 7.56-2.31.74 0 1.683.08 2.83.24 1.153.16 2 .34 2.54.54l-1.65 4.59c-1.5-.28-2.877-.42-4.13-.42-1.247 0-2.14.1-2.68.3-.54.2-.86.6-.96 1.2l-1.47 8.49h1.89c.68 0 1.183-.073 1.51-.22.333-.153.55-.5.65-1.04zm23.07 5.52h-5.7l1.14-6.63h-4.29l-1.14 6.63h-5.7l3.3-18.75h5.7l-1.17 6.63h4.29l1.17-6.63h5.7zm19.71-18.75-.87 4.8h-4.14l-2.43 13.95h-5.7l2.43-13.95h-4.11l.87-4.8zm9.3 13.23.15-.81h-1.44l.81-4.59h6.87l-1.77 10.02c-2.44.9-4.89 1.35-7.35 1.35-2.46 0-4.237-.49-5.33-1.47-1.087-.98-1.63-2.49-1.63-4.53 0-.86.14-2.13.42-3.81.6-3.48 1.66-5.99 3.18-7.53 1.52-1.54 4.04-2.31 7.56-2.31.74 0 1.683.08 2.83.24 1.153.16 2 .34 2.54.54l-1.65 4.59c-1.5-.28-2.877-.42-4.13-.42-1.247 0-2.14.1-2.68.3-.54.2-.86.6-.96 1.2l-1.47 8.49h1.89c.68 0 1.183-.073 1.51-.22.333-.153.55-.5.65-1.04zm10.26-13.23h5.7l-2.49 14.07h2.04c.7 0 1.2-.093 1.5-.28.3-.193.51-.63.63-1.31l2.22-12.48h5.7l-1.86 10.53c-.3 1.7-.647 3.07-1.04 4.11-.387 1.04-.93 1.92-1.63 2.64-.7.72-1.567 1.22-2.6 1.5-1.027.28-2.33.42-3.91.42-2.42 0-4.117-.367-5.09-1.1-.967-.727-1.45-1.98-1.45-3.76 0-.98.14-2.25.42-3.81zm31.17 18.75h-5.37l-3.06-6.66c-.08-.14-.12-.337-.12-.59 0-.247.02-.53.06-.85h-.24l-1.41 8.1h-5.7l3.3-18.75h5.37l3.06 6.66c.06.14.09.337.09.59 0 .247-.02.53-.06.85h.24l1.44-8.1h5.7z" fill="#fff"/></svg>

<?xml version="1.0" encoding="utf-8"?>
<svg viewBox="0 0 200 40" xmlns="http://www.w3.org/2000/svg">
  <g id="layer1" fill="#555555" stroke="none" transform="matrix(0.01234, -0.002081, 0.002081, 0.01234, 11.648507, 16.899731)">
    <path d="M 994.141 1044.927 C 981.047 1040.791 965.884 1034.589 961.749 1030.453 C 947.965 1019.426 950.721 938.1 967.262 880.207 C 996.209 774.069 1049.277 687.919 1150.591 583.159 C 1229.16 501.143 1238.809 480.467 1218.132 435.669 C 1205.727 410.168 1165.064 377.087 1145.766 377.087 C 1139.563 377.087 1128.536 372.262 1120.954 366.749 C 1114.063 361.235 1096.832 356.411 1083.048 356.411 C 1050.655 356.411 1041.006 348.14 1007.924 290.936 C 976.221 236.489 975.532 228.219 993.451 180.664 L 1006.546 146.203 L 1043.073 142.757 C 1073.399 139.311 1092.008 131.73 1140.941 99.337 C 1174.023 77.972 1208.483 60.053 1216.753 60.053 C 1225.024 60.053 1242.254 66.255 1254.66 73.837 C 1274.647 86.242 1289.12 87.621 1394.568 87.62 C 1502.084 87.62 1513.801 88.999 1532.41 101.404 C 1550.329 114.499 1553.086 115.188 1572.384 105.539 C 1589.614 95.891 1593.06 95.891 1596.506 104.85 C 1599.263 113.121 1603.398 113.81 1617.871 106.918 C 1630.277 101.404 1637.858 101.404 1642.682 106.229 C 1648.196 111.742 1655.088 111.742 1667.494 106.228 C 1680.589 100.715 1685.413 100.715 1689.548 107.607 C 1694.373 114.499 1698.508 115.188 1710.225 108.296 C 1721.941 102.782 1728.144 102.093 1735.036 108.296 C 1741.928 114.499 1748.131 113.81 1759.158 108.296 C 1772.253 101.404 1775.699 102.782 1784.659 114.499 C 1794.307 128.972 1797.064 128.972 2186.465 128.971 L 2577.934 128.971 L 2657.882 97.956 C 2733.005 68.32 2739.208 66.942 2757.127 76.591 C 2804.682 101.402 2899.793 250.959 2894.969 293.001 C 2892.901 310.231 2890.145 311.609 2853.616 313.677 C 2821.914 315.055 2812.953 318.501 2804.683 331.596 L 2794.345 347.448 L 2513.148 351.584 L 2231.953 356.409 L 2214.723 376.396 L 2196.804 397.072 L 1934.906 414.992 C 1790.862 424.641 1668.873 434.29 1663.359 436.357 C 1656.467 438.425 1655.089 448.074 1657.846 474.953 C 1660.603 494.25 1665.427 513.549 1669.562 517.684 C 1679.9 528.022 1677.833 553.523 1665.427 563.861 C 1657.846 570.064 1629.588 574.888 1591.682 576.956 L 1529.653 580.402 L 1441.435 738.919 C 1357.352 889.166 1352.528 899.504 1352.528 936.032 C 1352.528 958.776 1349.082 978.073 1344.258 982.208 C 1328.406 994.614 1122.334 1044.238 1069.954 1048.373 C 1041.696 1050.441 1007.236 1048.373 994.141 1044.927 Z" transform="matrix(0.965926, -0.258819, 0.258819, 0.965926, -77.987752, 516.874447)" style="fill: rgb(204, 204, 204);"/>
  </g>
  <path d="M 61.638 24.4 L 60.798 29.2 L 49.398 29.2 L 52.698 10.45 L 58.398 10.45 L 55.938 24.4 L 61.638 24.4 Z M 67.638 29.2 L 61.938 29.2 L 65.238 10.45 L 70.938 10.45 L 67.638 29.2 Z M 81.378 23.68 L 81.378 23.68 L 81.528 22.87 L 80.088 22.87 L 80.898 18.28 L 87.768 18.28 L 85.998 28.3 L 85.998 28.3 C 83.558 29.2 81.108 29.65 78.648 29.65 L 78.648 29.65 L 78.648 29.65 C 76.188 29.65 74.411 29.16 73.318 28.18 L 73.318 28.18 L 73.318 28.18 C 72.231 27.2 71.688 25.69 71.688 23.65 L 71.688 23.65 L 71.688 23.65 C 71.688 22.79 71.828 21.52 72.108 19.84 L 72.108 19.84 L 72.108 19.84 C 72.708 16.36 73.768 13.85 75.288 12.31 L 75.288 12.31 L 75.288 12.31 C 76.808 10.77 79.328 10 82.848 10 L 82.848 10 L 82.848 10 C 83.588 10 84.531 10.08 85.678 10.24 L 85.678 10.24 L 85.678 10.24 C 86.831 10.4 87.678 10.58 88.218 10.78 L 88.218 10.78 L 86.568 15.37 L 86.568 15.37 C 85.068 15.09 83.691 14.95 82.438 14.95 L 82.438 14.95 L 82.438 14.95 C 81.191 14.95 80.298 15.05 79.758 15.25 L 79.758 15.25 L 79.758 15.25 C 79.218 15.45 78.898 15.85 78.798 16.45 L 78.798 16.45 L 77.328 24.94 L 79.218 24.94 L 79.218 24.94 C 79.898 24.94 80.401 24.867 80.728 24.72 L 80.728 24.72 L 80.728 24.72 C 81.061 24.567 81.278 24.22 81.378 23.68 Z M 104.448 29.2 L 98.748 29.2 L 99.888 22.57 L 95.598 22.57 L 94.458 29.2 L 88.758 29.2 L 92.058 10.45 L 97.758 10.45 L 96.588 17.08 L 100.878 17.08 L 102.048 10.45 L 107.748 10.45 L 104.448 29.2 Z M 124.158 10.45 L 123.288 15.25 L 119.148 15.25 L 116.718 29.2 L 111.018 29.2 L 113.448 15.25 L 109.338 15.25 L 110.208 10.45 L 124.158 10.45 Z M 133.458 23.68 L 133.458 23.68 L 133.608 22.87 L 132.168 22.87 L 132.978 18.28 L 139.848 18.28 L 138.078 28.3 L 138.078 28.3 C 135.638 29.2 133.188 29.65 130.728 29.65 L 130.728 29.65 L 130.728 29.65 C 128.268 29.65 126.491 29.16 125.398 28.18 L 125.398 28.18 L 125.398 28.18 C 124.311 27.2 123.768 25.69 123.768 23.65 L 123.768 23.65 L 123.768 23.65 C 123.768 22.79 123.908 21.52 124.188 19.84 L 124.188 19.84 L 124.188 19.84 C 124.788 16.36 125.848 13.85 127.368 12.31 L 127.368 12.31 L 127.368 12.31 C 128.888 10.77 131.408 10 134.928 10 L 134.928 10 L 134.928 10 C 135.668 10 136.611 10.08 137.758 10.24 L 137.758 10.24 L 137.758 10.24 C 138.911 10.4 139.758 10.58 140.298 10.78 L 140.298 10.78 L 138.648 15.37 L 138.648 15.37 C 137.148 15.09 135.771 14.95 134.518 14.95 L 134.518 14.95 L 134.518 14.95 C 133.271 14.95 132.378 15.05 131.838 15.25 L 131.838 15.25 L 131.838 15.25 C 131.298 15.45 130.978 15.85 130.878 16.45 L 130.878 16.45 L 129.408 24.94 L 131.298 24.94 L 131.298 24.94 C 131.978 24.94 132.481 24.867 132.808 24.72 L 132.808 24.72 L 132.808 24.72 C 133.141 24.567 133.358 24.22 133.458 23.68 Z M 143.718 10.45 L 149.418 10.45 L 146.928 24.52 L 148.968 24.52 L 148.968 24.52 C 149.668 24.52 150.168 24.427 150.468 24.24 L 150.468 24.24 L 150.468 24.24 C 150.768 24.047 150.978 23.61 151.098 22.93 L 151.098 22.93 L 153.318 10.45 L 159.018 10.45 L 157.158 20.98 L 157.158 20.98 C 156.858 22.68 156.511 24.05 156.118 25.09 L 156.118 25.09 L 156.118 25.09 C 155.731 26.13 155.188 27.01 154.488 27.73 L 154.488 27.73 L 154.488 27.73 C 153.788 28.45 152.921 28.95 151.888 29.23 L 151.888 29.23 L 151.888 29.23 C 150.861 29.51 149.558 29.65 147.978 29.65 L 147.978 29.65 L 147.978 29.65 C 145.558 29.65 143.861 29.283 142.888 28.55 L 142.888 28.55 L 142.888 28.55 C 141.921 27.823 141.438 26.57 141.438 24.79 L 141.438 24.79 L 141.438 24.79 C 141.438 23.81 141.578 22.54 141.858 20.98 L 141.858 20.98 L 143.718 10.45 Z M 174.888 29.2 L 169.518 29.2 L 166.458 22.54 L 166.458 22.54 C 166.378 22.4 166.338 22.203 166.338 21.95 L 166.338 21.95 L 166.338 21.95 C 166.338 21.703 166.358 21.42 166.398 21.1 L 166.398 21.1 L 166.158 21.1 L 164.748 29.2 L 159.048 29.2 L 162.348 10.45 L 167.718 10.45 L 170.778 17.11 L 170.778 17.11 C 170.838 17.25 170.868 17.447 170.868 17.7 L 170.868 17.7 L 170.868 17.7 C 170.868 17.947 170.848 18.23 170.808 18.55 L 170.808 18.55 L 171.048 18.55 L 172.488 10.45 L 178.188 10.45 L 174.888 29.2 Z" style="white-space: pre; fill: rgb(255, 255, 255);"/>
</svg>
